; generated by AnycubicSlicer 1.1.1 on 2024-07-16 at 04:00:16 UTC

; 

; external perimeters extrusion width = 0.45mm
; perimeters extrusion width = 0.40mm
; infill extrusion width = 0.45mm
; solid infill extrusion width = 0.50mm
; top infill extrusion width = 0.45mm
; first layer extrusion width = 0.56mm

M73 P0 R2
M201 X2500 Y2500 Z800 E2500 ; sets maximum accelerations, mm/sec^2
M203 X300 Y250 Z8 E80 ; sets maximum feedrates, mm / sec
M204 P2500 R2500 T2500 ; sets acceleration (P, T) and retract acceleration (R), mm/sec^2
M205 X15.00 Y10.00 Z2.00 E10.00 ; sets the jerk limits, mm/sec
M205 S0 T0 ; sets the minimum extruding and travel feed rate, mm/sec
M107
;TYPE:Custom
G90 ; use absolute coordinates
M83 ; extruder relative mode
M104 S195 ; set extruder temp
M140 S40 ; set bed temp
M190 S40 ; wait for bed temp
M109 S195 ; wait for extruder temp
G28                                        ; move X/Y/Z to min endstops
G1 Z0.28                                   ; lift nozzle a bit 
G92 E0 
G1 Y3 F1800                                    ; zero the extruded length 
G1 X60  E25 F500                       ; Extrude 25mm of filament in a 5cm line. 
G92 E0                                     ; zero the extruded length again 
G1 E-2 F500                                ; Retract a little 
M73 P4 R2
G1 X70 F4000                              ; Quickly wipe away from the filament line
M117
G21 ; set units to millimeters
G90 ; use absolute coordinates
M82 ; use absolute distances for extrusion
G92 E0
; Filament gcode
M107
;LAYER_CHANGE
;Z:0.28
;HEIGHT:0.28
; BEFORE_LAYER_CHANGE 0 @ 0.28mm
M73 P5 R2
G1 E-2 F4800
G92 E0
G1 Z.28 F7200
; AFTER_LAYER_CHANGE 0 @ 0.28mm
G1 X108.903 Y106.779
G1 E2 F4800
M204 S2000
;TYPE:Skirt/Brim
;WIDTH:0.56
G1 F1643
G1 X109.278 Y106.404 E2.03086
G1 X109.608 Y106.158 E2.05481
G1 X110.204 Y105.882 E2.09303
G1 X110.69 Y105.767 E2.12209
G1 X119.259 Y105.761 E2.62076
G1 X119.798 Y105.883 E2.65292
M73 P6 R2
G1 X120.302 Y106.105 E2.68497
G1 X120.692 Y106.379 E2.71271
G1 X121.102 Y106.784 E2.74625
G1 X121.455 Y107.312 E2.78321
G1 X121.639 Y107.767 E2.81177
G1 X121.739 Y108.248 E2.84036
G1 X121.75 Y121.653 E3.62046
G1 X121.652 Y122.189 E3.65217
G1 X121.425 Y122.746 E3.68717
G1 X121.097 Y123.221 E3.72076
G1 X120.722 Y123.596 E3.75162
G1 X120.392 Y123.842 E3.77557
G1 X119.795 Y124.118 E3.81385
G1 X119.201 Y124.245 E3.8492
G1 X110.847 Y124.249 E4.33536
G1 X110.311 Y124.152 E4.36706
G1 X109.754 Y123.925 E4.40206
G1 X109.279 Y123.597 E4.43565
G1 X108.904 Y123.222 E4.46651
G1 X108.658 Y122.892 E4.49046
G1 X108.382 Y122.295 E4.52874
G1 X108.25 Y121.652 E4.56694
G1 X108.25 Y108.347 E5.34122
G1 X108.348 Y107.811 E5.37293
M73 P7 R2
G1 X108.575 Y107.254 E5.40793
G1 X108.869 Y106.829 E5.438
M204 S2500
G1 X109.272 Y107.117 F7200
M204 S2000
G1 F1643
G1 X109.618 Y106.771 E5.46648
G1 X109.882 Y106.577 E5.48555
G1 X110.385 Y106.349 E5.51769
G1 X110.773 Y106.261 E5.54084
G1 X119.18 Y106.255 E6.03008
G1 X119.621 Y106.351 E6.05635
G1 X120.075 Y106.552 E6.08524
G1 X120.383 Y106.772 E6.10727
G1 X120.731 Y107.119 E6.13587
G1 X121.003 Y107.527 E6.16441
G1 X121.155 Y107.893 E6.18747
G1 X121.245 Y108.325 E6.21315
G1 X121.25 Y121.629 E6.98738
G1 X121.166 Y122.068 E7.01339
M73 P8 R2
G1 X120.974 Y122.528 E7.0424
G1 X120.728 Y122.883 E7.06753
G1 X120.382 Y123.229 E7.09601
G1 X120.118 Y123.423 E7.11508
G1 X119.616 Y123.651 E7.14717
G1 X119.127 Y123.75 E7.1762
G1 X110.871 Y123.75 E7.65666
G1 X110.432 Y123.666 E7.68267
G1 X109.972 Y123.474 E7.71168
G1 X109.617 Y123.228 E7.73681
G1 X109.271 Y122.882 E7.76529
G1 X109.077 Y122.618 E7.78436
G1 X108.849 Y122.116 E7.81645
G1 X108.75 Y121.627 E7.84548
G1 X108.75 Y108.371 E8.61691
G1 X108.834 Y107.932 E8.64292
G1 X109.026 Y107.472 E8.67193
G1 X109.238 Y107.166 E8.69359
M204 S2500
G1 X109.641 Y107.455 F7200
M204 S2000
G1 F1643
G1 X109.957 Y107.139 E8.7196
G1 X110.152 Y106.998 E8.7336
G1 X110.561 Y106.817 E8.75963
G1 X110.85 Y106.755 E8.77683
G1 X119.153 Y106.755 E9.26002
G1 X119.441 Y106.818 E9.27718
M73 P9 R2
G1 X119.848 Y106.998 E9.30308
G1 X120.043 Y107.139 E9.31708
G1 X120.36 Y107.456 E9.34317
G1 X120.55 Y107.741 E9.3631
G1 X120.683 Y108.061 E9.38327
G1 X120.75 Y108.397 E9.40321
G1 X120.75 Y121.603 E10.17173
G1 X120.682 Y121.942 E10.19185
G1 X120.526 Y122.306 E10.2149
G1 X120.359 Y122.545 E10.23187
G1 X120.043 Y122.861 E10.25788
G1 X119.848 Y123.002 E10.27188
G1 X119.441 Y123.182 E10.29778
G1 X119.103 Y123.25 E10.31784
G1 X110.897 Y123.25 E10.79539
G1 X110.558 Y123.182 E10.81551
G1 X110.194 Y123.026 E10.83856
G1 X109.955 Y122.859 E10.85553
G1 X109.639 Y122.543 E10.88154
G1 X109.498 Y122.348 E10.89554
G1 X109.318 Y121.941 E10.92144
G1 X109.25 Y121.603 E10.9415
G1 X109.25 Y108.397 E11.71002
G1 X109.318 Y108.058 E11.73014
M73 P10 R2
G1 X109.474 Y107.694 E11.75319
G1 X109.606 Y107.504 E11.76665
M204 S2500
G1 X110.009 Y107.794 F7200
M204 S2000
G1 F1643
G1 X110.294 Y107.509 E11.79011
G1 X110.416 Y107.423 E11.7988
G1 X110.731 Y107.288 E11.81874
G1 X110.922 Y107.25 E11.83007
G1 X119.124 Y107.255 E12.30738
G1 X119.266 Y107.287 E12.31585
G1 X119.584 Y107.423 E12.33598
G1 X119.706 Y107.509 E12.34467
G1 X119.989 Y107.792 E12.36796
G1 X120.098 Y107.955 E12.37937
G1 X120.212 Y108.229 E12.39664
G1 X120.25 Y108.422 E12.40809
G1 X120.25 Y121.578 E13.1737
G1 X120.212 Y121.769 E13.18503
G1 X120.077 Y122.084 E13.20497
G1 X119.991 Y122.206 E13.21366
G1 X119.706 Y122.491 E13.23712
G1 X119.584 Y122.577 E13.24581
G1 X119.269 Y122.712 E13.26575
G1 X119.078 Y122.75 E13.27708
G1 X110.922 Y122.75 E13.75172
G1 X110.731 Y122.712 E13.76305
G1 X110.416 Y122.577 E13.78299
G1 X110.294 Y122.491 E13.79168
G1 X110.009 Y122.206 E13.81514
G1 X109.923 Y122.084 E13.82383
G1 X109.788 Y121.769 E13.84377
G1 X109.75 Y121.578 E13.8551
G1 X109.75 Y108.422 E14.62071
G1 X109.788 Y108.231 E14.63204
M73 P11 R2
G1 X109.923 Y107.916 E14.65198
G1 X109.974 Y107.843 E14.65716
M204 S2500
G1 X110.382 Y108.128 F7200
M204 S2000
G1 F1643
G1 X110.628 Y107.882 E14.67741
G1 X110.946 Y107.75 E14.69745
G1 X119.054 Y107.75 E15.16929
G1 X119.372 Y107.882 E15.18933
G1 X119.645 Y108.169 E15.21238
G1 X119.75 Y108.446 E15.22962
G1 X119.75 Y121.554 E15.99244
G1 X119.618 Y121.872 E16.01248
G1 X119.331 Y122.145 E16.03553
G1 X119.054 Y122.25 E16.05277
G1 X110.946 Y122.25 E16.52461
G1 X110.628 Y122.118 E16.54465
M73 P12 R2
G1 X110.355 Y121.831 E16.5677
G1 X110.25 Y121.554 E16.58494
G1 X110.25 Y108.446 E17.34776
G1 X110.351 Y108.179 E17.36437
M204 S2500
G1 X110.788 Y108.429 F7200
M204 S2000
G1 F1643
G1 X110.929 Y108.288 E17.37597
G1 X111.021 Y108.25 E17.38176
G1 X118.979 Y108.25 E17.84488
G1 X119.071 Y108.288 E17.85067
G1 X119.212 Y108.429 E17.86227
G1 X119.25 Y108.521 E17.86806
G1 X119.25 Y121.479 E18.62215
G1 X119.212 Y121.571 E18.62794
M73 P13 R2
G1 X119.071 Y121.712 E18.63954
G1 X118.979 Y121.75 E18.64533
G1 X111.021 Y121.75 E19.10845
G1 X110.929 Y121.712 E19.11424
G1 X110.788 Y121.571 E19.12584
G1 X110.75 Y121.479 E19.13163
G1 X110.75 Y108.521 E19.88572
G1 X110.765 Y108.484 E19.88804
M204 S2500
G1 E18.48804 F4800
;WIPE_START
G1 F5760
G1 X110.929 Y108.288 E18.28572
G1 X111.021 Y108.25 E18.20692
G1 X111.424 Y108.25 E17.88804
;WIPE_END
G92 E0
G1 X118.6 Y121.1 F7200
G1 E2 F4800
M204 S2000
;TYPE:External perimeter
G1 F1643
G1 X111.4 Y121.1 E2.419
G1 X111.4 Y108.9 E3.12898
G1 X118.6 Y108.9 E3.54798
M73 P14 R2
G1 X118.6 Y121.04 E4.25447
M204 S2500
G1 X118.224 Y120.964 F7200
G1 X118.1 Y120.6
M204 S2000
;TYPE:Perimeter
G1 F1643
G1 X111.9 Y120.6 E4.61528
G1 X111.9 Y109.4 E5.26706
G1 X118.1 Y109.4 E5.62787
M73 P15 R2
G1 X118.1 Y120.54 E6.27616
M204 S2500
G1 X117.6 Y120.1 F7200
M204 S2000
G1 F1643
G1 X112.4 Y120.1 E6.57877
G1 X112.4 Y109.9 E7.17236
G1 X117.6 Y109.9 E7.47497
M73 P16 R2
G1 X117.6 Y120.04 E8.06507
M204 S2500
G1 E6.66507 F4800
;WIPE_START
G1 F5760
G1 X116.842 Y120.049 E6.06507
;WIPE_END
G92 E0
G1 X117.4 Y111.152 F7200
G1 E2 F4800
M204 S2000
;TYPE:Solid infill
;WIDTH:0.579841
G1 F1643
G1 X116.573 Y110.325 E2.07076
G1 X115.837 Y110.325 E2.11529
G1 X117.175 Y111.663 E2.22978
G1 X117.175 Y112.398 E2.27425
G1 X115.102 Y110.325 E2.45163
G1 X114.367 Y110.325 E2.4961
G1 X117.175 Y113.133 E2.73637
G1 X117.175 Y113.868 E2.78084
G1 X113.632 Y110.325 E3.084
G1 X112.897 Y110.325 E3.12847
M73 P17 R2
G1 X117.175 Y114.603 E3.49452
G1 X117.175 Y115.338 E3.53899
G1 X112.825 Y110.987 E3.91125
G1 X112.825 Y111.722 E3.95572
G1 X117.175 Y116.073 E4.32798
G1 X117.175 Y116.808 E4.37245
G1 X112.825 Y112.457 E4.74471
G1 X112.825 Y113.192 E4.78918
G1 X117.175 Y117.543 E5.16144
G1 X117.175 Y118.278 E5.20591
G1 X112.825 Y113.927 E5.57817
G1 X112.825 Y114.662 E5.62264
M73 P18 R2
G1 X117.175 Y119.013 E5.9949
G1 X117.175 Y119.675 E6.03495
G1 X117.103 Y119.675 E6.03931
G1 X112.825 Y115.397 E6.40536
G1 X112.825 Y116.132 E6.44983
G1 X116.368 Y119.675 E6.75299
G1 X115.632 Y119.675 E6.79752
G1 X112.825 Y116.868 E7.0377
G1 X112.825 Y117.603 E7.08217
G1 X114.897 Y119.675 E7.25946
G1 X114.162 Y119.675 E7.30393
G1 X112.825 Y118.338 E7.41833
G1 X112.825 Y119.073 E7.4628
G1 X113.652 Y119.9 E7.53356
M204 S2500
M106 S255
;LAYER_CHANGE
;Z:0.48
;HEIGHT:0.2
; BEFORE_LAYER_CHANGE 1 @ 0.48mm
G1 E6.13356 F4800
;WIPE_START
G1 F5760
G1 X113.116 Y119.364 E5.53356
;WIPE_END
G92 E0
G1 Z.48 F7200
; AFTER_LAYER_CHANGE 1 @ 0.48mm
M104 S190 ; set temperature
G1 X118.755 Y121.255
G1 E2 F4800
;TYPE:External perimeter
;WIDTH:0.45
G1 F900
M73 P19 R2
G1 X111.245 Y121.255 E2.2542
G1 X111.245 Y108.745 E2.67765
G1 X118.755 Y108.745 E2.93185
M73 P19 R1
G1 X118.755 Y121.195 E3.35327
M73 P20 R1
G1 X118.378 Y121.12 F7200
G1 X118.373 Y120.873
;TYPE:Perimeter
;WIDTH:0.4
G1 F900
G1 X111.627 Y120.873 E3.55357
G1 X111.627 Y109.127 E3.90232
M73 P21 R1
G1 X118.373 Y109.127 E4.10262
G1 X118.373 Y120.813 E4.44959
G1 X118.016 Y120.516 F7200
M73 P22 R1
G1 F900
G1 X111.984 Y120.516 E4.62869
G1 X111.984 Y109.484 E4.95624
G1 X118.016 Y109.484 E5.13534
M73 P23 R1
G1 X118.016 Y120.456 E5.46111
G1 E4.06111 F4800
;WIPE_START
M73 P24 R1
G1 F5760
G1 X117.258 Y120.464 E3.46111
;WIPE_END
G92 E0
G1 X117.67 Y112.5 F7200
G1 E2 F4800
;TYPE:Solid infill
;WIDTH:0.499999
G1 F900
G1 X117.67 Y109.83 E2.10148
G1 X112.33 Y109.83 E2.30443
G1 X112.33 Y120.17 E2.69741
G1 X117.67 Y120.17 E2.90036
M73 P25 R1
G1 X117.67 Y112.56 E3.18959
G1 X117.213 Y112.5 F7200
G1 F900
G1 X117.213 Y110.287 E3.2737
G1 X112.787 Y110.287 E3.44192
G1 X112.787 Y119.713 E3.80017
G1 X117.213 Y119.713 E3.96839
M73 P26 R1
G1 X117.213 Y112.56 E4.24025
G1 X116.756 Y112.5 F7200
G1 F900
G1 X116.756 Y110.744 E4.30699
G1 X113.244 Y110.744 E4.44047
G1 X113.244 Y119.256 E4.76398
M73 P27 R1
G1 X116.756 Y119.256 E4.89746
G1 X116.756 Y112.56 E5.15195
G1 X116.299 Y112.5 F7200
G1 F900
G1 X116.299 Y111.201 E5.20132
G1 X113.701 Y111.201 E5.30006
M73 P28 R1
G1 X113.701 Y118.799 E5.58883
G1 X116.299 Y118.799 E5.68757
G1 X116.299 Y112.56 E5.92469
G1 X115.842 Y112.5 F7200
G1 F900
G1 X115.842 Y111.658 E5.95669
G1 X114.158 Y111.658 E6.02069
G1 X114.158 Y118.342 E6.27472
M73 P29 R1
G1 X115.842 Y118.342 E6.33872
G1 X115.842 Y112.56 E6.55847
G1 X115.384 Y112.5 F7200
G1 F900
G1 X115.384 Y112.116 E6.57306
G1 X114.616 Y112.116 E6.60225
G1 X114.616 Y117.884 E6.82147
G1 X115.384 Y117.884 E6.85066
G1 X115.384 Y112.56 E7.05301
G1 E5.65301 F4800
;WIPE_START
M73 P30 R1
G1 F5760
G1 X115.384 Y113.318 E5.05301
;WIPE_END
G92 E0
G1 X115 Y117.5 F7200
G1 E2 F4800
;WIDTH:0.354706
G1 F900
G1 X115 Y112.56 E2.12807
;LAYER_CHANGE
;Z:0.68
;HEIGHT:0.2
; BEFORE_LAYER_CHANGE 2 @ 0.68mm
G1 E.72807 F4800
;WIPE_START
G1 F5760
G1 X115 Y113.318 E.12807
;WIPE_END
G92 E0
G1 Z.68 F7200
; AFTER_LAYER_CHANGE 2 @ 0.68mm
G1 X118.755 Y121.255
G1 E2 F4800
;TYPE:External perimeter
;WIDTH:0.45
G1 F900
G1 X111.245 Y121.255 E2.2542
G1 X111.245 Y108.745 E2.67765
M73 P31 R1
G1 X118.755 Y108.745 E2.93185
G1 X118.755 Y121.195 E3.35327
G1 X118.378 Y121.12 F7200
M73 P32 R1
G1 X118.373 Y120.873
;TYPE:Perimeter
;WIDTH:0.4
G1 F900
G1 X111.627 Y120.873 E3.55357
G1 X111.627 Y109.127 E3.90232
G1 X118.373 Y109.127 E4.10262
M73 P33 R1
G1 X118.373 Y120.813 E4.44959
G1 X118.016 Y120.516 F7200
M73 P34 R1
G1 F900
G1 X111.984 Y120.516 E4.62869
G1 X111.984 Y109.484 E4.95624
G1 X118.016 Y109.484 E5.13534
M73 P35 R1
G1 X118.016 Y120.456 E5.46111
G1 E4.06111 F4800
;WIPE_START
G1 F5760
G1 X117.258 Y120.464 E3.46111
;WIPE_END
G92 E0
G1 X117.67 Y117.5 F7200
G1 E2 F4800
;TYPE:Solid infill
;WIDTH:0.499999
G1 F900
G1 X117.67 Y109.83 E2.29151
G1 X112.33 Y109.83 E2.49446
M73 P36 R1
G1 X112.33 Y120.17 E2.88744
G1 X117.67 Y120.17 E3.09039
G1 X117.67 Y117.56 E3.18959
M73 P37 R1
G1 X117.213 Y117.5 F7200
G1 F900
G1 X117.213 Y110.287 E3.46373
G1 X112.787 Y110.287 E3.63195
G1 X112.787 Y119.713 E3.9902
G1 X117.213 Y119.713 E4.15842
M73 P38 R1
G1 X117.213 Y117.56 E4.24025
G1 X116.756 Y117.5 F7200
G1 F900
G1 X116.756 Y110.744 E4.49702
G1 X113.244 Y110.744 E4.6305
G1 X113.244 Y119.256 E4.95401
M73 P39 R1
G1 X116.756 Y119.256 E5.08749
G1 X116.756 Y117.56 E5.15195
G1 X116.299 Y117.5 F7200
G1 F900
G1 X116.299 Y111.201 E5.39135
G1 X113.701 Y111.201 E5.49009
G1 X113.701 Y118.799 E5.77886
M73 P40 R1
G1 X116.299 Y118.799 E5.8776
G1 X116.299 Y117.56 E5.92469
G1 X115.842 Y117.5 F7200
G1 F900
G1 X115.842 Y111.658 E6.14672
G1 X114.158 Y111.658 E6.21072
G1 X114.158 Y118.342 E6.46475
G1 X115.842 Y118.342 E6.52875
M73 P41 R1
G1 X115.842 Y117.56 E6.55847
G1 X115.384 Y117.5 F7200
G1 F900
G1 X115.384 Y112.116 E6.7631
G1 X114.616 Y112.116 E6.79229
G1 X114.616 Y117.884 E7.01151
G1 X115.384 Y117.884 E7.0407
G1 X115.384 Y117.56 E7.05301
G1 E5.65301 F4800
;WIPE_START
G1 F5760
G1 X115.384 Y117.884 E5.39651
G1 X114.95 Y117.884 E5.05301
;WIPE_END
G92 E0
G1 X115 Y112.5 F7200
G1 E2 F4800
;WIDTH:0.354706
M73 P42 R1
G1 F900
G1 X115 Y117.44 E2.12807
;LAYER_CHANGE
;Z:0.88
;HEIGHT:0.2
; BEFORE_LAYER_CHANGE 3 @ 0.88mm
G1 E.72807 F4800
;WIPE_START
G1 F5760
G1 X115 Y116.682 E.12807
;WIPE_END
G92 E0
G1 Z.88 F7200
; AFTER_LAYER_CHANGE 3 @ 0.88mm
G1 X118.755 Y121.255
G1 E2 F4800
;TYPE:External perimeter
;WIDTH:0.45
G1 F900
G1 X111.245 Y121.255 E2.2542
G1 X111.245 Y108.745 E2.67765
G1 X118.755 Y108.745 E2.93185
M73 P43 R1
G1 X118.755 Y121.195 E3.35327
G1 X118.378 Y121.12 F7200
M73 P44 R1
G1 X118.373 Y120.873
;TYPE:Perimeter
;WIDTH:0.4
G1 F900
G1 X111.627 Y120.873 E3.55357
G1 X111.627 Y109.127 E3.90232
G1 X118.373 Y109.127 E4.10262
M73 P45 R1
G1 X118.373 Y120.813 E4.44959
G1 X118.016 Y120.516 F7200
G1 F900
G1 X111.984 Y120.516 E4.62869
G1 X111.984 Y109.484 E4.95624
M73 P46 R1
G1 X118.016 Y109.484 E5.13534
G1 X118.016 Y120.456 E5.46111
G1 E4.06111 F4800
;WIPE_START
M73 P47 R1
G1 F5760
G1 X117.258 Y120.464 E3.46111
;WIPE_END
G92 E0
G1 X115.379 Y120.378 F7200
G1 E2 F4800
;TYPE:Internal infill
;WIDTH:0.45
G1 F900
G1 X117.695 Y118.062 E2.11087
G1 X117.695 Y112.305 E2.30574
G1 X112.305 Y117.695 E2.56376
G1 X112.305 Y111.938 E2.75863
M73 P48 R1
G1 X114.621 Y109.622 E2.8695
;LAYER_CHANGE
;Z:1.08
;HEIGHT:0.2
; BEFORE_LAYER_CHANGE 4 @ 1.08mm
G1 E1.4695 F4800
;WIPE_START
G1 F5760
G1 X114.085 Y110.158 E.8695
;WIPE_END
G92 E0
G1 Z1.08 F7200
; AFTER_LAYER_CHANGE 4 @ 1.08mm
G1 X118.755 Y121.255
G1 E2 F4800
;TYPE:External perimeter
G1 F900
G1 X111.245 Y121.255 E2.2542
G1 X111.245 Y108.745 E2.67765
M73 P49 R1
G1 X118.755 Y108.745 E2.93185
G1 X118.755 Y121.195 E3.35327
M73 P50 R1
G1 X118.378 Y121.12 F7200
G1 X118.373 Y120.873
;TYPE:Perimeter
;WIDTH:0.4
G1 F900
G1 X111.627 Y120.873 E3.55357
G1 X111.627 Y109.127 E3.90232
M73 P51 R1
G1 X118.373 Y109.127 E4.10262
G1 X118.373 Y120.813 E4.44959
G1 X118.016 Y120.516 F7200
M73 P52 R1
G1 F900
G1 X111.984 Y120.516 E4.62869
G1 X111.984 Y109.484 E4.95624
G1 X118.016 Y109.484 E5.13534
M73 P53 R1
G1 X118.016 Y120.456 E5.46111
G1 E4.06111 F4800
;WIPE_START
G1 F5760
G1 X117.258 Y120.464 E3.46111
;WIPE_END
G92 E0
G1 X112.122 Y117.879 F7200
M73 P54 R1
G1 E2 F4800
;TYPE:Internal infill
;WIDTH:0.45
G1 F900
G1 X114.438 Y120.195 E2.11087
G1 X117.695 Y120.195 E2.22112
G1 X117.695 Y117.695 E2.30574
G1 X112.305 Y112.305 E2.56376
G1 X112.305 Y109.805 E2.64838
G1 X115.562 Y109.805 E2.75863
G1 X117.878 Y112.121 E2.8695
;LAYER_CHANGE
;Z:1.28
;HEIGHT:0.2
; BEFORE_LAYER_CHANGE 5 @ 1.28mm
M73 P55 R1
G1 E1.4695 F4800
