; generated by AnycubicSlicer 1.1.1 on 2024-07-16 at 01:35:23 UTC

; 

; external perimeters extrusion width = 0.45mm
; perimeters extrusion width = 0.40mm
; infill extrusion width = 0.45mm
; solid infill extrusion width = 0.50mm
; top infill extrusion width = 0.45mm
; first layer extrusion width = 0.56mm

M73 P0 R66
M201 X2500 Y2500 Z800 E2500 ; sets maximum accelerations, mm/sec^2
M203 X300 Y250 Z8 E80 ; sets maximum feedrates, mm / sec
M204 P2500 R2500 T2500 ; sets acceleration (P, T) and retract acceleration (R), mm/sec^2
M205 X15.00 Y10.00 Z2.00 E10.00 ; sets the jerk limits, mm/sec
M205 S0 T0 ; sets the minimum extruding and travel feed rate, mm/sec
M107
;TYPE:Custom
G90 ; use absolute coordinates
M83 ; extruder relative mode
M104 S195 ; set extruder temp
M140 S40 ; set bed temp
M190 S40 ; wait for bed temp
M109 S195 ; wait for extruder temp
G28                                        ; move X/Y/Z to min endstops
G1 Z0.28                                   ; lift nozzle a bit 
G92 E0 
G1 Y3 F1800                                    ; zero the extruded length 
G1 X60  E25 F500                       ; Extrude 25mm of filament in a 5cm line. 
G92 E0                                     ; zero the extruded length again 
G1 E-2 F500                                ; Retract a little 
G1 X70 F4000                              ; Quickly wipe away from the filament line
M117
G21 ; set units to millimeters
G90 ; use absolute coordinates
M82 ; use absolute distances for extrusion
G92 E0
; Filament gcode
M107
;LAYER_CHANGE
;Z:0.28
;HEIGHT:0.28
; BEFORE_LAYER_CHANGE 0 @ 0.28mm
G1 E-2 F4800
G92 E0
G1 Z.28 F7200
; AFTER_LAYER_CHANGE 0 @ 0.28mm
G1 X63.271 Y90.41
G1 E2 F4800
M204 S2000
;TYPE:Skirt/Brim
;WIDTH:0.56
G1 F3000
G1 X63.814 Y90.045 E2.03808
G1 X64.318 Y89.846 E2.06961
G1 X64.847 Y89.75 E2.1009
G1 X165.208 Y89.755 E7.9414
G1 X165.753 Y89.869 E7.9738
G1 X166.302 Y90.106 E8.0086
G1 X166.692 Y90.379 E8.0363
G1 X167.102 Y90.785 E8.06988
G1 X167.408 Y91.226 E8.10112
G1 X167.625 Y91.722 E8.13263
G1 X167.75 Y92.348 E8.16978
G1 X167.75 Y137.652 E10.80624
G1 X167.625 Y138.277 E10.84333
G1 X167.458 Y138.681 E10.86877
G1 X167.247 Y139.035 E10.89275
G1 X166.729 Y139.59 E10.93693
G1 X166.186 Y139.955 E10.97501
G1 X165.682 Y140.154 E11.00654
G1 X165.153 Y140.25 E11.03783
G1 X64.848 Y140.25 E16.87507
G1 X64.223 Y140.125 E16.91216
G1 X63.819 Y139.958 E16.9376
G1 X63.465 Y139.747 E16.96158
G1 X62.91 Y139.229 E17.00576
G1 X62.545 Y138.686 E17.04384
G1 X62.346 Y138.182 E17.07537
G1 X62.25 Y137.653 E17.10666
G1 X62.25 Y92.348 E19.74318
G1 X62.375 Y91.723 E19.78027
G1 X62.542 Y91.319 E19.80571
G1 X62.753 Y90.965 E19.82969
G1 X63.23 Y90.454 E19.87037
M204 S2500
G1 X63.593 Y90.797 F7200
M204 S2000
G1 F3000
G1 X64.026 Y90.498 E19.90099
G1 X64.437 Y90.332 E19.92679
G1 X64.871 Y90.25 E19.95249
G1 X165.18 Y90.255 E25.78997
G1 X165.621 Y90.351 E25.81624
G1 X166.075 Y90.552 E25.84513
G1 X166.383 Y90.772 E25.86716
G1 X166.731 Y91.12 E25.8958
G1 X166.981 Y91.486 E25.92159
G1 X167.154 Y91.893 E25.94733
G1 X167.25 Y92.373 E25.97582
G1 X167.25 Y137.627 E28.60937
G1 X167.154 Y138.108 E28.63791
G1 X167.003 Y138.471 E28.66079
G1 X166.834 Y138.752 E28.67987
G1 X166.386 Y139.225 E28.71778
G1 X165.974 Y139.502 E28.74667
G1 X165.563 Y139.668 E28.77247
G1 X165.129 Y139.75 E28.79817
G1 X64.873 Y139.75 E34.63256
G1 X64.392 Y139.654 E34.6611
G1 X64.029 Y139.503 E34.68398
G1 X63.748 Y139.334 E34.70306
G1 X63.275 Y138.886 E34.74097
G1 X62.998 Y138.474 E34.76986
G1 X62.832 Y138.063 E34.79566
G1 X62.75 Y137.629 E34.82136
G1 X62.75 Y92.373 E37.45503
G1 X62.846 Y91.892 E37.48357
G1 X62.997 Y91.529 E37.50645
G1 X63.166 Y91.248 E37.52553
G1 X63.551 Y90.841 E37.55813
M204 S2500
G1 X63.911 Y91.187 F7200
M204 S2000
G1 F3000
G1 X64.241 Y90.95 E37.58177
G1 X64.561 Y90.817 E37.60194
G1 X64.897 Y90.75 E37.62188
G1 X165.152 Y90.755 E43.45621
G1 X165.441 Y90.818 E43.47342
G1 X165.848 Y90.998 E43.49932
G1 X166.043 Y91.139 E43.51332
G1 X166.36 Y91.456 E43.53941
G1 X166.55 Y91.741 E43.55934
G1 X166.683 Y92.061 E43.57951
G1 X166.75 Y92.397 E43.59945
G1 X166.75 Y137.603 E46.23021
G1 X166.683 Y137.939 E46.25015
G1 X166.55 Y138.261 E46.27042
G1 X166.424 Y138.466 E46.28442
G1 X166.045 Y138.859 E46.31619
G1 X165.759 Y139.05 E46.3362
G1 X165.439 Y139.183 E46.35637
G1 X165.103 Y139.25 E46.37631
G1 X64.897 Y139.25 E52.20779
G1 X64.561 Y139.183 E52.22773
G1 X64.239 Y139.05 E52.248
G1 X64.034 Y138.924 E52.262
G1 X63.641 Y138.545 E52.29377
G1 X63.45 Y138.259 E52.31378
G1 X63.317 Y137.939 E52.33395
G1 X63.25 Y137.603 E52.35389
G1 X63.25 Y92.397 E54.98465
G1 X63.317 Y92.061 E55.00459
G1 X63.45 Y91.739 E55.02486
G1 X63.576 Y91.534 E55.03886
G1 X63.869 Y91.23 E55.06343
M204 S2500
G1 X64.225 Y91.579 F7200
M204 S2000
G1 F3000
G1 X64.293 Y91.511 E55.06903
G1 X64.455 Y91.402 E55.08039
G1 X64.729 Y91.288 E55.09766
G1 X64.922 Y91.25 E55.10911
G1 X165.124 Y91.255 E60.94036
G1 X165.266 Y91.287 E60.94883
G1 X165.584 Y91.423 E60.96896
G1 X165.706 Y91.509 E60.97765
G1 X165.989 Y91.792 E61.00094
G1 X166.098 Y91.955 E61.01235
G1 X166.212 Y92.229 E61.02962
G1 X166.25 Y92.422 E61.04107
G1 X166.25 Y137.578 E63.66892
G1 X166.212 Y137.771 E63.68037
G1 X166.097 Y138.048 E63.69782
G1 X166.017 Y138.174 E63.70651
G1 X165.707 Y138.489 E63.73223
G1 X165.545 Y138.598 E63.74359
G1 X165.271 Y138.712 E63.76086
G1 X165.078 Y138.75 E63.77231
G1 X64.922 Y138.75 E69.60088
G1 X64.729 Y138.712 E69.61233
G1 X64.452 Y138.597 E69.62978
G1 X64.326 Y138.517 E69.63847
G1 X64.011 Y138.207 E69.66419
G1 X63.902 Y138.045 E69.67555
G1 X63.788 Y137.771 E69.69282
G1 X63.75 Y137.578 E69.70427
G1 X63.75 Y92.422 E72.33212
G1 X63.788 Y92.229 E72.34357
G1 X63.903 Y91.952 E72.36102
G1 X63.983 Y91.826 E72.36971
G1 X64.183 Y91.622 E72.38634
M204 S2500
G1 X64.535 Y91.974 F7200
M204 S2000
G1 F3000
G1 X64.669 Y91.855 E72.39677
G1 X64.946 Y91.75 E72.41401
G1 X165.054 Y91.75 E78.23979
G1 X165.331 Y91.855 E78.25703
G1 X165.618 Y92.128 E78.28008
G1 X165.75 Y92.446 E78.30012
G1 X165.75 Y137.554 E80.92518
G1 X165.645 Y137.831 E80.94242
G1 X165.372 Y138.118 E80.96547
G1 X165.054 Y138.25 E80.98551
G1 X64.946 Y138.25 E86.81129
G1 X64.669 Y138.145 E86.82853
G1 X64.382 Y137.872 E86.85158
G1 X64.25 Y137.554 E86.87162
G1 X64.25 Y92.446 E89.49668
G1 X64.355 Y92.169 E89.51392
G1 X64.493 Y92.017 E89.52587
M204 S2500
G1 X64.847 Y92.37 F7200
M204 S2000
G1 F3000
G1 X64.929 Y92.288 E89.53262
G1 X65.021 Y92.25 E89.53841
G1 X164.979 Y92.25 E95.35546
G1 X165.071 Y92.288 E95.36125
M73 P1 R66
G1 X165.212 Y92.429 E95.37285
G1 X165.25 Y92.521 E95.37864
G1 X165.25 Y137.479 E97.99497
G1 X165.212 Y137.571 E98.00076
G1 X165.071 Y137.712 E98.01236
G1 X164.979 Y137.75 E98.01815
G1 X65.021 Y137.75 E103.8352
G1 X64.929 Y137.712 E103.84099
G1 X64.788 Y137.571 E103.85259
G1 X64.75 Y137.479 E103.85838
G1 X64.75 Y92.521 E106.47471
G1 X64.804 Y92.413 E106.48174
M204 S2500
G1 E105.08174 F4800
;WIPE_START
G1 F5760
G1 X64.929 Y92.288 E104.94179
G1 X65.021 Y92.25 E104.86299
G1 X65.503 Y92.25 E104.48174
;WIPE_END
G92 E0
G1 X164.6 Y137.1 F7200
G1 E2 F4800
M204 S2000
;TYPE:External perimeter
G1 F3000
G1 X65.4 Y137.1 E7.77294
G1 X65.4 Y92.9 E10.34516
G1 X164.6 Y92.9 E16.1181
G1 X164.6 Y137.04 E18.68682
M204 S2500
G1 X164.204 Y137.044 F7200
G1 X164.1 Y136.6
M204 S2000
;TYPE:Perimeter
G1 F3000
G1 X65.9 Y136.6 E24.40156
G1 X65.9 Y93.4 E26.91558
G1 X164.1 Y93.4 E32.63032
G1 X164.1 Y136.54 E35.14085
M204 S2500
G1 X163.6 Y136.1 F7200
M204 S2000
G1 F3000
G1 X66.4 Y136.1 E40.7974
G1 X66.4 Y93.9 E43.25323
M73 P1 R65
G1 X163.6 Y93.9 E48.90978
G1 X163.6 Y136.04 E51.36211
M204 S2500
G1 E49.96211 F4800
;WIPE_START
G1 F5760
G1 X162.842 Y136.04 E49.36211
;WIPE_END
G92 E0
G1 X162.389 Y94.1 F7200
G1 E2 F4800
M204 S2000
;TYPE:Solid infill
;WIDTH:0.560477
G1 F3000
G1 X163.175 Y94.886 E2.06475
G1 X163.175 Y95.594 E2.10599
G1 X161.906 Y94.325 E2.21053
G1 X161.198 Y94.325 E2.25177
G1 X163.175 Y96.302 E2.41463
G1 X163.175 Y97.009 E2.45581
G1 X160.491 Y94.325 E2.67691
G1 X159.783 Y94.325 E2.71815
G1 X163.175 Y97.717 E2.99758
G1 X163.175 Y98.425 E3.03882
G1 X159.075 Y94.325 E3.37657
G1 X158.368 Y94.325 E3.41775
G1 X163.175 Y99.132 E3.81374
G1 X163.175 Y99.84 E3.85498
G1 X157.66 Y94.325 E4.3093
G1 X156.952 Y94.325 E4.35054
G1 X163.175 Y100.548 E4.86318
G1 X163.175 Y101.255 E4.90436
G1 X156.245 Y94.325 E5.47524
G1 X155.537 Y94.325 E5.51648
G1 X163.175 Y101.963 E6.14569
G1 X163.175 Y102.671 E6.18693
G1 X154.829 Y94.325 E6.87446
G1 X154.122 Y94.325 E6.91564
G1 X163.175 Y103.378 E7.66141
G1 X163.175 Y104.086 E7.70265
G1 X153.414 Y94.325 E8.50675
G1 X152.706 Y94.325 E8.54799
G1 X163.175 Y104.794 E9.41041
G1 X163.175 Y105.501 E9.45159
G1 X151.999 Y94.325 E10.37225
G1 X151.291 Y94.325 E10.41349
G1 X163.175 Y106.209 E11.39248
G1 X163.175 Y106.917 E11.43372
G1 X150.583 Y94.325 E12.47103
G1 X149.876 Y94.325 E12.51221
G1 X163.175 Y107.624 E13.60776
G1 X163.175 Y108.332 E13.649
G1 X149.168 Y94.325 E14.80288
G1 X148.46 Y94.325 E14.84412
G1 X163.175 Y109.04 E16.05632
G1 X163.175 Y109.747 E16.0975
G1 X147.753 Y94.325 E17.36794
G1 X147.045 Y94.325 E17.40918
G1 X163.175 Y110.455 E18.73795
G1 X163.175 Y111.163 E18.77919
G1 X146.338 Y94.325 E20.16624
G1 X145.63 Y94.325 E20.20748
G1 X163.175 Y111.87 E21.65281
G1 X163.175 Y112.578 E21.69405
G1 X144.922 Y94.325 E23.19771
G1 X144.215 Y94.325 E23.23889
G1 X163.175 Y113.285 E24.80079
G1 X163.175 Y113.993 E24.84203
G1 X143.507 Y94.325 E26.46225
G1 X142.799 Y94.325 E26.50349
G1 X163.175 Y114.701 E28.18204
G1 X163.175 Y115.408 E28.22322
G1 X142.092 Y94.325 E29.96001
G1 X141.384 Y94.325 E30.00125
G1 X163.175 Y116.116 E31.79636
G1 X163.175 Y116.824 E31.8376
G1 X140.676 Y94.325 E33.69104
G1 X139.969 Y94.325 E33.73222
G1 X163.175 Y117.531 E35.6439
G1 X163.175 Y118.239 E35.68514
G1 X139.261 Y94.325 E37.65514
G1 X138.553 Y94.325 E37.69638
G1 X163.175 Y118.947 E39.72471
G1 X163.175 Y119.654 E39.76589
G1 X137.846 Y94.325 E41.85246
G1 X137.138 Y94.325 E41.8937
G1 X163.175 Y120.362 E44.03859
G1 X163.175 Y121.07 E44.07983
G1 X136.43 Y94.325 E46.28305
G1 X135.723 Y94.325 E46.32423
G1 X163.175 Y121.777 E48.58569
G1 X163.175 Y122.485 E48.62693
M73 P2 R65
G1 X135.015 Y94.325 E50.94671
G1 X134.307 Y94.325 E50.98795
G1 X163.175 Y123.193 E53.36606
G1 X163.175 Y123.9 E53.40724
G1 X133.6 Y94.325 E55.84359
G1 X132.892 Y94.325 E55.88483
G1 X163.175 Y124.608 E58.3795
G1 X163.175 Y125.316 E58.42074
G1 X132.184 Y94.325 E60.97374
G1 X131.477 Y94.325 E61.01492
G1 X163.175 Y126.023 E63.62616
G1 X163.175 Y126.731 E63.6674
G1 X130.769 Y94.325 E66.33696
G1 X130.061 Y94.325 E66.3782
G1 X163.175 Y127.439 E69.10609
G1 X163.175 Y128.146 E69.14727
G1 X129.354 Y94.325 E71.9334
G1 X128.646 Y94.325 E71.97464
G1 X163.175 Y128.854 E74.81909
G1 X163.175 Y129.562 E74.86033
G1 X127.938 Y94.325 E77.76311
G1 X127.231 Y94.325 E77.80429
G1 X163.175 Y130.269 E80.76531
G1 X163.175 Y130.977 E80.80655
G1 X126.523 Y94.325 E83.82589
G1 X125.815 Y94.325 E83.86713
G1 X163.175 Y131.685 E86.9448
G1 X163.175 Y132.392 E86.98598
G1 X125.108 Y94.325 E90.12189
G1 X124.4 Y94.325 E90.16313
G1 X163.175 Y133.1 E93.35736
G1 X163.175 Y133.808 E93.3986
G1 X123.692 Y94.325 E96.65116
G1 X122.985 Y94.325 E96.69234
G1 X163.175 Y134.515 E100.00314
G1 X163.175 Y135.223 E100.04438
G1 X122.277 Y94.325 E103.4135
G1 X121.57 Y94.325 E103.45468
G1 X162.92 Y135.675 E106.86104
G1 X162.212 Y135.675 E106.90228
G1 X120.862 Y94.325 E110.30864
G1 X120.154 Y94.325 E110.34988
G1 X161.505 Y135.675 E113.75628
G1 X160.797 Y135.675 E113.79752
G1 X119.447 Y94.325 E117.20388
G1 X118.739 Y94.325 E117.24512
G1 X160.089 Y135.675 E120.65148
G1 X159.382 Y135.675 E120.69266
G1 X118.031 Y94.325 E124.09906
G1 X117.324 Y94.325 E124.14024
G1 X158.674 Y135.675 E127.5466
G1 X157.966 Y135.675 E127.58784
G1 X116.616 Y94.325 E130.9942
G1 X115.908 Y94.325 E131.03544
G1 X157.259 Y135.675 E134.44184
G1 X156.551 Y135.675 E134.48308
G1 X115.201 Y94.325 E137.88944
G1 X114.493 Y94.325 E137.93068
G1 X155.843 Y135.675 E141.33704
G1 X155.136 Y135.675 E141.37822
G1 X113.785 Y94.325 E144.78462
G1 X113.078 Y94.325 E144.8258
G1 X154.428 Y135.675 E148.23216
G1 X153.72 Y135.675 E148.2734
G1 X112.37 Y94.325 E151.67976
G1 X111.662 Y94.325 E151.721
G1 X153.013 Y135.675 E155.1274
G1 X152.305 Y135.675 E155.16864
G1 X110.955 Y94.325 E158.575
G1 X110.247 Y94.325 E158.61624
M73 P2 R64
G1 X151.598 Y135.675 E162.02264
G1 X150.89 Y135.675 E162.06388
G1 X109.539 Y94.325 E165.47028
G1 X108.832 Y94.325 E165.51146
M73 P3 R64
G1 X150.182 Y135.675 E168.91782
G1 X149.475 Y135.675 E168.959
G1 X108.124 Y94.325 E172.3654
G1 X107.416 Y94.325 E172.40664
G1 X148.767 Y135.675 E175.81304
G1 X148.059 Y135.675 E175.85428
G1 X106.709 Y94.325 E179.26064
G1 X106.001 Y94.325 E179.30188
G1 X147.352 Y135.675 E182.70828
G1 X146.644 Y135.675 E182.74952
G1 X105.293 Y94.325 E186.15592
G1 X104.586 Y94.325 E186.1971
G1 X145.936 Y135.675 E189.60346
G1 X145.229 Y135.675 E189.64464
G1 X103.878 Y94.325 E193.05104
G1 X103.17 Y94.325 E193.09228
G1 X144.521 Y135.675 E196.49868
G1 X143.813 Y135.675 E196.53992
G1 X102.463 Y94.325 E199.94628
G1 X101.755 Y94.325 E199.98752
G1 X143.106 Y135.675 E203.39392
G1 X142.398 Y135.675 E203.43516
G1 X101.047 Y94.325 E206.84156
G1 X100.34 Y94.325 E206.88274
G1 X141.69 Y135.675 E210.2891
G1 X140.983 Y135.675 E210.33028
G1 X99.632 Y94.325 E213.73668
G1 X98.924 Y94.325 E213.77792
G1 X140.275 Y135.675 E217.18432
G1 X139.567 Y135.675 E217.22556
G1 X98.217 Y94.325 E220.63192
G1 X97.509 Y94.325 E220.67316
G1 X138.86 Y135.675 E224.07956
G1 X138.152 Y135.675 E224.1208
G1 X96.802 Y94.325 E227.52716
G1 X96.094 Y94.325 E227.5684
G1 X137.444 Y135.675 E230.97476
G1 X136.737 Y135.675 E231.01594
G1 X95.386 Y94.325 E234.42234
G1 X94.679 Y94.325 E234.46352
G1 X136.029 Y135.675 E237.86988
G1 X135.321 Y135.675 E237.91112
G1 X93.971 Y94.325 E241.31748
G1 X93.263 Y94.325 E241.35872
G1 X134.614 Y135.675 E244.76512
G1 X133.906 Y135.675 E244.80636
G1 X92.556 Y94.325 E248.21272
G1 X91.848 Y94.325 E248.25396
G1 X133.198 Y135.675 E251.66032
G1 X132.491 Y135.675 E251.7015
G1 X91.14 Y94.325 E255.1079
G1 X90.433 Y94.325 E255.14908
G1 X131.783 Y135.675 E258.55544
G1 X131.075 Y135.675 E258.59668
G1 X89.725 Y94.325 E262.00304
G1 X89.017 Y94.325 E262.04428
G1 X130.368 Y135.675 E265.45068
G1 X129.66 Y135.675 E265.49192
G1 X88.31 Y94.325 E268.89828
G1 X87.602 Y94.325 E268.93952
G1 X128.952 Y135.675 E272.34588
G1 X128.245 Y135.675 E272.38706
G1 X86.894 Y94.325 E275.79346
G1 X86.187 Y94.325 E275.83464
G1 X127.537 Y135.675 E279.241
G1 X126.83 Y135.675 E279.28218
M73 P4 R64
G1 X85.479 Y94.325 E282.68858
G1 X84.771 Y94.325 E282.72982
G1 X126.122 Y135.675 E286.13622
G1 X125.414 Y135.675 E286.17746
G1 X84.064 Y94.325 E289.58382
G1 X83.356 Y94.325 E289.62506
G1 X124.707 Y135.675 E293.03146
G1 X123.999 Y135.675 E293.0727
G1 X82.648 Y94.325 E296.4791
G1 X81.941 Y94.325 E296.52028
G1 X123.291 Y135.675 E299.92664
G1 X122.584 Y135.675 E299.96782
G1 X81.233 Y94.325 E303.37422
G1 X80.525 Y94.325 E303.41546
G1 X121.876 Y135.675 E306.82186
G1 X121.168 Y135.675 E306.8631
G1 X79.818 Y94.325 E310.26946
G1 X79.11 Y94.325 E310.3107
G1 X120.461 Y135.675 E313.7171
G1 X119.753 Y135.675 E313.75834
G1 X78.402 Y94.325 E317.16474
G1 X77.695 Y94.325 E317.20592
G1 X119.045 Y135.675 E320.61228
G1 X118.338 Y135.675 E320.65346
G1 X76.987 Y94.325 E324.05986
G1 X76.279 Y94.325 E324.1011
G1 X117.63 Y135.675 E327.5075
G1 X116.922 Y135.675 E327.54874
G1 X75.572 Y94.325 E330.9551
G1 X74.864 Y94.325 E330.99634
M73 P4 R63
G1 X116.215 Y135.675 E334.40274
G1 X115.507 Y135.675 E334.44398
G1 X74.156 Y94.325 E337.85038
G1 X73.449 Y94.325 E337.89156
G1 X114.799 Y135.675 E341.29792
G1 X114.092 Y135.675 E341.3391
G1 X72.741 Y94.325 E344.7455
G1 X72.034 Y94.325 E344.78668
G1 X113.384 Y135.675 E348.19304
G1 X112.676 Y135.675 E348.23428
G1 X71.326 Y94.325 E351.64064
G1 X70.618 Y94.325 E351.68188
G1 X111.969 Y135.675 E355.08828
G1 X111.261 Y135.675 E355.12952
G1 X69.911 Y94.325 E358.53588
G1 X69.203 Y94.325 E358.57712
G1 X110.553 Y135.675 E361.98348
G1 X109.846 Y135.675 E362.02466
G1 X68.495 Y94.325 E365.43106
G1 X67.788 Y94.325 E365.47224
G1 X109.138 Y135.675 E368.8786
G1 X108.43 Y135.675 E368.91984
